X: 13306
T: Flaherty's
R: hornpipe
M: 4/4
K: Dmajor
F>G|A2 F>D A,>DF>A|d>ef>d B>cd>B|A2 F>D A,>DF>A|B>AG>F E2 F>G|
A2 F>D A,>DF>A|d>ef>d B>cd>B|A>dc>B (3ABA (3GFE|D2 F2 D2:|
|:FA|B>GB>c d>Ad>f|b>ag>f e>dc>B|c>EE>D E>FG>A|(3cdc (3BcB A2 F>G|
A2 F>D A,>DF>A|d>fe>d B>cd>B|A>dc>B (3ABA (3GFE|D2 F2 D2:|

